**harm	**harte	**timestamp	**phrase	**leadinstrument	**kern
*M4/4	*M4/4	*	*	*	*
*e:	*e:	*	*	*	*e:
1r;	N	0	.	r	1r;
=1	=1	=1	=1	=1	=1
*>A_intro	*>A_intro	*>A_intro	*>A_intro	*>A_intro	*>A_intro
1i	E:min	0.488	newline	guitar	1E 1g 1b
=2	=2	=2	=2	=2	=2
1iv7	A:min7	2.814	.	guitar	1A 1cc 1ee 1gg
=3	=3	=3	=3	=3	=3
1v	B:sus4	5.14	.	guitar	1B 1dd 1ff#
=4	=4	=4	=4	=4	=4
1V	B:maj	7.467	.	guitar	1B 1dd# 1ff#
=5	=5	=5	=5	=5	=5
*>B_verse	*>B_verse	*>B_verse	*>B_verse	*>B_verse	*>B_verse
1i	E:min	9.793	newline	voice	1E 1g 1b
=6	=6	=6	=6	=6	=6
1iv7	A:min7	12.114	.	voice	1A 1cc 1ee 1gg
=7	=7	=7	=7	=7	=7
2v	B:sus4	14.436	.	voice	2B 2dd 2ff#
2V	B:maj	15.596	.	voice	2B 2dd# 2ff#
=8	=8	=8	=8	=8	=8
1i	E:min	16.757	.	voice	1E 1g 1b
=9	=9	=9	=9	=9	=9
1i	E:min	19.078	newline	voice	1E 1g 1b
=10	=10	=10	=10	=10	=10
1iv7	A:min7	21.37	.	voice	1A 1cc 1ee 1gg
=11	=11	=11	=11	=11	=11
2v	B:sus4	23.663	.	voice	2B 2dd 2ff#
2V	B:maj	24.809	.	voice	2B 2dd# 2ff#
=12	=12	=12	=12	=12	=12
1i	E:min	25.956	newline	guitar	1E 1g 1b
=13	=13	=13	=13	=13	=13
1i	E:min	28.186	.	guitar	1E 1g 1b
=14	=14	=14	=14	=14	=14
1i	E:min	30.416	newline	voice	1E 1g 1b
=15	=15	=15	=15	=15	=15
1iv7	A:min7	32.692	.	voice	1A 1cc 1ee 1gg
=16	=16	=16	=16	=16	=16
2v	B:sus4	34.969	.	voice	2B 2dd 2ff#
2V	B:maj	36.108	.	voice	2B 2dd# 2ff#
=17	=17	=17	=17	=17	=17
1i	E:min	37.246	.	voice	1E 1g 1b
=18	=18	=18	=18	=18	=18
1i	E:min	39.523	newline	voice	1E 1g 1b
=19	=19	=19	=19	=19	=19
1iv7	A:min7	41.788	.	voice	1A 1cc 1ee 1gg
=20	=20	=20	=20	=20	=20
2v	B:sus4	44.053	.	voice	2B 2dd 2ff#
2V	B:maj	45.186	.	voice	2B 2dd# 2ff#
=21	=21	=21	=21	=21	=21
1i	E:min	46.319	newline	guitar	1E 1g 1b
=22	=22	=22	=22	=22	=22
1i	E:min	48.553	.	guitar	1E 1g 1b
=23	=23	=23	=23	=23	=23
*>C_chorus	*>C_chorus	*>C_chorus	*>C_chorus	*>C_chorus	*>C_chorus
2-VI	C:maj	50.787	newline	voice	2C- 2e- 2g-
2-VII	D:maj	51.898	.	voice	2D 2f# 2a
=24	=24	=24	=24	=24	=24
1-III	G:maj	53.009	.	voice	1G- 1b- 1dd-
=25	=25	=25	=25	=25	=25
2-VI	C:maj	55.232	.	voice	2C- 2e- 2g-
2-VII	D:maj	56.343	.	voice	2D 2f# 2a
=26	=26	=26	=26	=26	=26
2-III	G:maj	57.454	.	voice	2G- 2b- 2dd-
2-IIIm7	G:7	58.565	.	voice	2G- 2b- 2dd- 2ff#
=27	=27	=27	=27	=27	=27
1V7	B:7	59.676	newline	voice	1B 1dd# 1ff# 1aa
=28	=28	=28	=28	=28	=28
2i	E:min	61.906	.	voice	2E 2g 2b
2id	E:min/b7	63.02	.	voice	2e 2g 2b
=29	=29	=29	=29	=29	=29
1-VI	C:maj	64.135	.	voice	1C- 1e- 1g-
=30	=30	=30	=30	=30	=30
1v	B:sus4	66.364	newline	strings	1B 1dd 1ff#
=31	=31	=31	=31	=31	=31
1V	B:maj	68.606	.	strings	1B 1dd# 1ff#
=32	=32	=32	=32	=32	=32
*>B_verse	*>B_verse	*>B_verse	*>B_verse	*>B_verse	*>B_verse
1i	E:min	70.848	newline	voice	1E 1g 1b
=33	=33	=33	=33	=33	=33
1iv7	A:min7	73.137	.	voice	1A 1cc 1ee 1gg
=34	=34	=34	=34	=34	=34
2v	B:sus4	75.427	.	voice	2B 2dd 2ff#
2V	B:maj	76.571	.	voice	2B 2dd# 2ff#
=35	=35	=35	=35	=35	=35
1i	E:min	77.716	.	voice	1E 1g 1b
=36	=36	=36	=36	=36	=36
1i	E:min	80.005	newline	voice	1E 1g 1b
=37	=37	=37	=37	=37	=37
1iv7	A:min7	82.272	.	voice	1A 1cc 1ee 1gg
=38	=38	=38	=38	=38	=38
2v	B:sus4	84.539	.	voice	2B 2dd 2ff#
2V	B:maj	85.672	.	voice	2B 2dd# 2ff#
=39	=39	=39	=39	=39	=39
1i	E:min	86.805	.	voice	1E 1g 1b
=40	=40	=40	=40	=40	=40
1i	E:min	89.072	newline	voice	1E 1g 1b
=41	=41	=41	=41	=41	=41
1iv7	A:min7	91.33	.	voice	1A 1cc 1ee 1gg
=42	=42	=42	=42	=42	=42
2v	B:sus4	93.589	.	voice	2B 2dd 2ff#
2V	B:maj	94.718	.	voice	2B 2dd# 2ff#
=43	=43	=43	=43	=43	=43
1i	E:min	95.847	.	voice	1E 1g 1b
=44	=44	=44	=44	=44	=44
1i	E:min	98.105	newline	voice	1E 1g 1b
=45	=45	=45	=45	=45	=45
1iv7	A:min7	100.338	.	voice	1A 1cc 1ee 1gg
=46	=46	=46	=46	=46	=46
2v	B:sus4	102.571	.	voice	2B 2dd 2ff#
2V	B:maj	103.688	.	voice	2B 2dd# 2ff#
=47	=47	=47	=47	=47	=47
1i	E:min	104.805	newline	strings	1E 1g 1b
=48	=48	=48	=48	=48	=48
1i	E:min	107.023	.	strings	1E 1g 1b
=49	=49	=49	=49	=49	=49
*>C_chorus	*>C_chorus	*>C_chorus	*>C_chorus	*>C_chorus	*>C_chorus
2-VI	C:maj	109.242	newline	voice	2C- 2e- 2g-
2-VII	D:maj	110.37	.	voice	2D 2f# 2a
=50	=50	=50	=50	=50	=50
1-III	G:maj	111.499	.	voice	1G- 1b- 1dd-
=51	=51	=51	=51	=51	=51
2-VI	C:maj	113.757	.	voice	2C- 2e- 2g-
2-VII	D:maj	114.886	.	voice	2D 2f# 2a
=52	=52	=52	=52	=52	=52
1-IIIm7	G:7	116.014	.	voice	1G- 1b- 1dd- 1ff#
=53	=53	=53	=53	=53	=53
1V7	B:7	118.272	newline	voice	1B 1dd# 1ff# 1aa
=54	=54	=54	=54	=54	=54
2i	E:min	120.504	.	voice	2E 2g 2b
2id	E:min/b7	121.621	.	voice	2e 2g 2b
=55	=55	=55	=55	=55	=55
1-VI	C:maj	122.737	.	voice	1C- 1e- 1g-
=56	=56	=56	=56	=56	=56
1v	B:sus4	124.97	newline	strings	1B 1dd 1ff#
=57	=57	=57	=57	=57	=57
1V	B:maj	127.217	.	strings	1B 1dd# 1ff#
=58	=58	=58	=58	=58	=58
*>C_chorus	*>C_chorus	*>C_chorus	*>C_chorus	*>C_chorus	*>C_chorus
2-VI	C:maj	129.464	newline	guitar	2C- 2e- 2g-
2-VII	D:maj	130.579	.	guitar	2D 2f# 2a
=59	=59	=59	=59	=59	=59
1-III	G:maj	131.695	.	guitar	1G- 1b- 1dd-
=60	=60	=60	=60	=60	=60
2-VI	C:maj	133.927	.	guitar	2C- 2e- 2g-
2-VII	D:maj	135.042	.	guitar	2D 2f# 2a
=61	=61	=61	=61	=61	=61
1-IIIm7	G:7	136.158	.	guitar	1G- 1b- 1dd- 1ff#
=62	=62	=62	=62	=62	=62
1V7	B:7	138.39	newline	voice	1B 1dd# 1ff# 1aa
=63	=63	=63	=63	=63	=63
2i	E:min	140.647	.	voice	2E 2g 2b
2id	E:min/b7	141.775	.	voice	2e 2g 2b
=64	=64	=64	=64	=64	=64
1-VI	C:maj	142.904	.	voice	1C- 1e- 1g-
=65	=65	=65	=65	=65	=65
1v	B:sus4	145.161	newline	strings	1B 1dd 1ff#
=66	=66	=66	=66	=66	=66
1V	B:maj	147.38	.	strings	1B 1dd# 1ff#
=67	=67	=67	=67	=67	=67
*>B_verse	*>B_verse	*>B_verse	*>B_verse	*>B_verse	*>B_verse
1i	E:min	149.599	newline	voice	1E 1g 1b
=68	=68	=68	=68	=68	=68
1iv7	A:min7	151.868	.	voice	1A 1cc 1ee 1gg
=69	=69	=69	=69	=69	=69
2v	B:sus4	154.137	.	voice	2B 2dd 2ff#
2V	B:maj	155.271	.	voice	2B 2dd# 2ff#
=70	=70	=70	=70	=70	=70
1i	E:min	156.406	.	voice	1E 1g 1b
=71	=71	=71	=71	=71	=71
1i	E:min	158.675	newline	voice	1E 1g 1b
=72	=72	=72	=72	=72	=72
1iv7	A:min7	160.927	.	voice	1A 1cc 1ee 1gg
=73	=73	=73	=73	=73	=73
2v	B:sus4	163.178	.	voice	2B 2dd 2ff#
2V	B:maj	164.304	.	voice	2B 2dd# 2ff#
=74	=74	=74	=74	=74	=74
1i	E:min	165.43	newline	strings	1E 1g 1b
=75	=75	=75	=75	=75	=75
1i	E:min	167.614	.	strings	1E 1g 1b
=76	=76	=76	=76	=76	=76
*>C_chorus	*>C_chorus	*>C_chorus	*>C_chorus	*>C_chorus	*>C_chorus
2-VI	C:maj	169.799	newline	voice	2C- 2e- 2g-
2-VII	D:maj	170.921	.	voice	2D 2f# 2a
=77	=77	=77	=77	=77	=77
1-III	G:maj	172.042	.	voice	1G- 1b- 1dd-
=78	=78	=78	=78	=78	=78
2-VI	C:maj	174.286	.	voice	2C- 2e- 2g-
2-VII	D:maj	175.408	.	voice	2D 2f# 2a
=79	=79	=79	=79	=79	=79
1-IIIm7	G:7	176.529	.	voice	1G- 1b- 1dd- 1ff#
=80	=80	=80	=80	=80	=80
1V7	B:7	178.773	newline	voice	1B 1dd# 1ff# 1aa
=81	=81	=81	=81	=81	=81
2i	E:min	180.992	.	voice	2E 2g 2b
2id	E:min/b7	182.101	.	voice	2e 2g 2b
=82	=82	=82	=82	=82	=82
1-VI	C:maj	183.211	.	voice	1C- 1e- 1g-
=83	=83	=83	=83	=83	=83
2v	B:sus4	185.43	.	voice	2B 2dd 2ff#
2V	B:maj	186.539	.	voice	2B 2dd# 2ff#
=84	=84	=84	=84	=84	=84
*>C_fadeout	*>C_fadeout	*>C_fadeout	*>C_fadeout	*>C_fadeout	*>C_fadeout
2-VI	C:maj	187.648	newline	voice	2C- 2e- 2g-
2-VII	D:maj	188.632	.	voice	2D 2f# 2a
=85	=85	=85	=85	=85	=85
1-III	G:maj	189.616	.	voice	1G- 1b- 1dd-
=86	=86	=86	=86	=86	=86
2-VI	C:maj	191.583	.	voice	2C- 2e- 2g-
2-VII	D:maj	192.567	.	voice	2D 2f# 2a
=87	=87	=87	=87	=87	=87
1-IIIm7	G:7	193.551	.	voice	1G- 1b- 1dd- 1ff#
=88	=88	=88	=88	=88	=88
1v	B:sus4	195.518	.	voice	1B 1dd 1ff#
1r;	N	197.486	.	r	1r;
1r;	N	201.456	.	r	1r;
*-	*-	*-	*-	*-	*-
!!!OTL: Let Me Get To Know You
!!!COC: Paul Anka
!!!BillboardChartDate: 1974/02/23
!!!BillboardPeak: 80
!!!BillboardWeeksOnChart: 8
!!!SampleTargetRank: 85
!!!SampleActualRank: 87
!!!SampleID#: 0325
!!!RDF**harmony: **recip + pitch class of root + harmonic quality
!!!RDF**harte: Chris Harte's syntax, used by MIREX
!!!RDF**phrase: newline = linebreak in original McGill transcription
!!!RDF**timestamp: McGill audio timestamp in seconds
!!!RDF**leadinstrument: original McGill primary instrumentation annotation
!!!RDT: 2017/01/12/
!!!ENC: Nathaniel Condit-Schultz
!!!EST: Awating manual error checking and editing.
